dist/img/stack/stack-16.svg

<svg width="110" height="110" viewBox="0 0 110 110" fill="none" xmlns="http://www.w3.org/2000/svg">
<g clip-path="url(#clip0_7007_539)">
<path fill-rule="evenodd" clip-rule="evenodd" d="M89.685 35.2339C89.7109 35.3296 89.7242 35.4282 89.7244 35.5273V50.9303C89.7244 51.128 89.6721 51.3222 89.5726 51.4933C89.4732 51.6643 89.3303 51.8062 89.1582 51.9046L76.1876 59.3478V74.1008C76.1876 74.5023 75.9735 74.8729 75.6242 75.075L48.5492 90.61C48.4872 90.6451 48.4196 90.6676 48.352 90.6914C48.3266 90.6999 48.3027 90.7153 48.2759 90.7223C48.0867 90.772 47.8877 90.772 47.6985 90.7223C47.6675 90.7139 47.6393 90.697 47.6097 90.6858C47.5478 90.6633 47.483 90.6437 47.4238 90.61L20.3544 75.075C20.1824 74.9766 20.0396 74.8347 19.9402 74.6636C19.8408 74.4926 19.7883 74.2984 19.7882 74.1008V27.8918C19.7882 27.7907 19.8023 27.6924 19.8276 27.597C19.8361 27.5647 19.8558 27.5352 19.8671 27.5029C19.8882 27.444 19.9079 27.3836 19.9389 27.3288C19.96 27.2923 19.991 27.2629 20.0164 27.2292C20.0488 27.1842 20.0784 27.1379 20.1164 27.0986C20.1488 27.0663 20.191 27.0425 20.2277 27.0144C20.2685 26.9807 20.3051 26.9442 20.3516 26.9175L33.8884 19.15C34.0598 19.0517 34.2541 19 34.4518 19C34.6495 19 34.8438 19.0517 35.0152 19.15L48.5506 26.9175H48.5534C48.5985 26.9456 48.6365 26.9807 48.6773 27.013C48.714 27.041 48.7548 27.0663 48.7872 27.0972C48.8266 27.1379 48.8548 27.1842 48.8886 27.2292C48.9126 27.2629 48.945 27.2923 48.9647 27.3288C48.9971 27.385 49.0154 27.444 49.0379 27.5029C49.0492 27.5352 49.0689 27.5647 49.0774 27.5984C49.1033 27.694 49.1165 27.7927 49.1168 27.8918V56.7534L60.3958 50.2803V35.5259C60.3958 35.4276 60.4099 35.328 60.4353 35.2339C60.4451 35.2002 60.4634 35.1707 60.4747 35.1384C60.4972 35.0795 60.5169 35.0191 60.5479 34.9644C60.5691 34.9279 60.6 34.8984 60.624 34.8647C60.6578 34.8198 60.686 34.7734 60.7254 34.7341C60.7578 34.7018 60.7986 34.678 60.8353 34.6499C60.8775 34.6162 60.9141 34.5797 60.9592 34.553L74.4974 26.7855C74.6688 26.6871 74.8631 26.6353 75.0608 26.6353C75.2586 26.6353 75.4529 26.6871 75.6242 26.7855L89.1596 34.553C89.2075 34.5811 89.2441 34.6162 89.2864 34.6485C89.3216 34.6766 89.3624 34.7018 89.3948 34.7327C89.4343 34.7734 89.4624 34.8198 89.4962 34.8647C89.5216 34.8984 89.5526 34.9279 89.5723 34.9644C89.6047 35.0191 89.623 35.0795 89.6455 35.1384C89.6582 35.1707 89.6765 35.2002 89.685 35.2339ZM87.468 50.2803V37.4716L82.7313 40.1895L76.1876 43.9448V56.7534L87.4694 50.2803H87.468ZM73.9326 73.4508V60.6337L67.4959 64.2977L49.1154 74.7536V87.6914L73.9326 73.4508ZM22.0446 29.8361V73.4508L46.859 87.69V74.755L33.8954 67.4423L33.8912 67.4395L33.8856 67.4367C33.8419 67.4114 33.8053 67.3749 33.7645 67.3441C33.7292 67.316 33.6884 67.2935 33.6574 67.2626L33.6546 67.2584C33.618 67.2233 33.5926 67.1798 33.5616 67.1405C33.5335 67.1026 33.4997 67.0703 33.4771 67.031L33.4757 67.0268C33.4504 66.9847 33.4349 66.9341 33.4166 66.8864C33.3983 66.8443 33.3743 66.805 33.363 66.7601C33.349 66.7067 33.3461 66.6492 33.3405 66.5944C33.3349 66.5523 33.3236 66.5102 33.3236 66.4681V66.4653V36.3092L26.7813 32.5525L22.0446 29.8361ZM34.4532 21.4215L23.1756 27.8918L34.4504 34.3621L45.7266 27.8904L34.4504 21.4215H34.4532ZM40.3181 61.8017L46.8604 58.0478V29.8361L42.1237 32.554L35.58 36.3092V64.5209L40.3181 61.8017ZM75.0608 29.057L63.7846 35.5273L75.0608 41.9976L86.3356 35.5259L75.0608 29.057ZM73.9326 43.9448L67.3889 40.1895L62.6522 37.4716V50.2803L69.1945 54.0342L73.9326 56.7534V43.9448ZM47.9858 72.8092L64.5255 63.3979L72.7932 58.695L61.5254 52.2289L48.552 59.6734L36.7279 66.4582L47.9858 72.8092Z" fill="#B7B7BE"/>
</g>
<defs>
<clipPath id="clip0_7007_539">
<rect width="70.4235" height="73" fill="white" transform="translate(19.7882 19)"/>
</clipPath>
</defs>
</svg>

<svg width="110" height="110" viewBox="0 0 110 110" fill="none" xmlns="http://www.w3.org/2000/svg"><g clip-path="url(#clip0_7007_539)"><path fill-rule="evenodd" clip-rule="evenodd" d="M89.685 35.234c.026.096.04.194.04.293V50.93a1.12 1.12 0 01-.567.975l-12.97 7.443V74.1c0 .401-.215.772-.564.974L48.55 90.61c-.062.035-.13.058-.197.081-.025.009-.05.024-.076.031-.19.05-.388.05-.578 0-.03-.008-.059-.025-.088-.036-.062-.023-.127-.042-.186-.076l-27.07-15.535a1.125 1.125 0 01-.566-.974V27.89c0-.1.014-.199.04-.294.008-.032.028-.062.04-.094.02-.059.04-.12.07-.174.022-.037.053-.066.078-.1.033-.045.062-.091.1-.13.033-.033.075-.056.112-.085.04-.033.077-.07.124-.096l13.536-7.768a1.133 1.133 0 011.127 0l13.536 7.768h.002c.046.028.084.063.124.095.037.028.078.053.11.084.04.04.068.087.102.132.024.034.056.063.076.1.032.056.05.115.073.174.011.032.03.062.04.095.025.096.038.195.039.294v28.861l11.279-6.473V35.526c0-.098.014-.198.04-.292.01-.034.027-.063.039-.096.022-.058.042-.119.073-.174.021-.036.052-.066.076-.1.034-.044.062-.09.101-.13.033-.032.074-.056.11-.084.042-.034.08-.07.124-.097l13.538-7.767a1.132 1.132 0 011.127 0l13.536 7.767c.047.028.084.063.126.096.036.028.076.053.109.084.04.04.067.087.101.132.026.033.057.063.076.1.033.054.051.114.073.173.013.033.032.062.04.096zM87.468 50.28V37.472l-4.737 2.718-6.543 3.755v12.808l11.281-6.473h-.001zM73.933 73.45V60.635l-6.437 3.664-18.38 10.456V87.69l24.817-14.24zM22.045 29.837v43.615L46.859 87.69V74.755l-12.964-7.313-.004-.002-.005-.003c-.044-.026-.08-.062-.122-.093-.035-.028-.076-.05-.107-.081l-.002-.005c-.037-.035-.062-.078-.093-.117-.029-.038-.062-.07-.085-.11l-.001-.004c-.026-.042-.041-.093-.06-.14-.018-.043-.042-.082-.053-.127-.014-.053-.017-.11-.023-.166-.005-.042-.016-.084-.016-.126V36.31l-6.543-3.756-4.736-2.717zm12.408-8.414l-11.277 6.47 11.274 6.47 11.277-6.472-11.277-6.468h.003zm5.865 40.38l6.542-3.754V29.836l-4.736 2.718-6.544 3.755v28.212l4.738-2.72zm34.743-32.745l-11.276 6.47 11.276 6.47 11.275-6.471-11.275-6.469zm-1.128 14.888l-6.544-3.755-4.737-2.718V50.28l6.543 3.754 4.738 2.72v-12.81zM47.986 72.809l16.54-9.411 8.267-4.703-11.268-6.466-12.973 7.444-11.824 6.785 11.258 6.351z" fill="#B7B7BE"/></g><defs><clipPath id="clip0_7007_539"><path fill="#fff" transform="translate(19.788 19)" d="M0 0h70.424v73H0z"/></clipPath></defs></svg>
